!!!COM: Robert Franz
!!!CNT: Deutscher
!!!TXO: Deutsche 
!!!OTL: Liebesfruhling
!!!OPS: Op. 14
!!!ONM: No. 5
!!!ONB: Original key: E major
!!!LYR: Nicholaus Lenau
!!!ENC: Brian Bice
!!!YOR: Vocal Album, G. Schirmer, Inc., 1907
!!!ODT: 1860/
!!NB: Vocal melody and text only encoded.
**kern	**silbe
*clefG2	*
*k[f#c#]	*
*M2/4	*
=0	=0
4.r	.
{(16b	{Ich
16cc#)	|
=1	=1
8.dd	sah
16b	den
8f#	Lenz
8b	ein-
=2	=2
(8a	-mal
4f#)}	|}
{(16d	{er-
16e)	|
=3	=3
8.f#	blu2h'n
16g	im
8a	scho2n-
8e	-sten
=4	=4
4f#}	Thal:}
8r	.
{(16b	{ich
16cc#)	|
=5	=5
8.dd	sah
16b	der
8f#	Lie-
8b	-be
=6	=6
(8a	Licht
4f#)}	|}
{(16d	{im
16e)	|
=7	=7
8.f#	scho2n-
16g	-sten
8f#	An-
8e#	ge-
=8	=8
4f#}	-sicht.}
8r	.
{8ccn	{Und
=9	=9
8b	wandl'
8a	ich
(8g	nun
16b)	|
16a	al-
=10	=10
(4g	-lein
8f#)}	|}
{(16e	{im
16f#)	|
=11	=11
8.g	Fru2h-
16a	-ling
(8b	durch
16dd)	|
16ccn	den
=12	=12
(4b	Hain,
8a)}	|}
{(16b	{er-
16cc#)	|
=13	=13
(8dd	-scheint
16cc#)	|
16b	aus
8ee	je-
8cc#	-dem
=14	=14
4a}	Strauch}
8r	.
{(16d	{ihr
16e)	|
=15	=15
8.f#	An-
16g	-ge-
8a	-sicht
8e	mir
=16	=16
4f#}	auch.}
8r	.
{(16b	{Und
16cc#)	|
=17	=17
8.dd	seh'
16b	ich
8f#	sie
8b	am
=18	=18
(8a	Ort,
4f#)}	|}
{(16d	{wo
16e)	|
=19	=19
8.f#	la2ngst
16g	der
8f#	Fru2h-
8e#	-ling
=20	=20
4f#}	fort,}
8r	.
{(16b	{so
16cc#)	|
=21	=21
8.dd	spriesst
16b	ein
8f#	Lenz
8b	und
=22	=22
(8a	schallt
4f#)}	|}
{(16d	{um
16e)	|
=23	=23
8f#	ih-
8a	-re
8dd	su2-
16f#	-sse
16g	Ge-
=24	=24
[2a	-stalt.
=25	=25
4a]}	|}
4r	.
*-	*-
